X: 9856
T: Derivatune
R: reel
M: 4/4
K: Edorian
~E3F DB,B,D A,B,DE FEDB,|[E3B,3]F DB,B,D|A,B,DE FA (3FED|
~E3F DB,B,D A,B,DE FEDB,|[E3B,]F DB,B,D|A,B,DE GFED||
K:Gmaj
CEBE FDB,G,|A,DFA GEFD|CEBE FDB,G,|A,B,CD ED [B,2D2]|
CEBE FDB,G,|A,DFA GEFD|CEAB dAFB|AFDA FDdF||

